src/16/actions/stroke-to-path.svg

<svg xmlns="http://www.w3.org/2000/svg" width="16" height="16" viewBox="0 0 16 16">
 <defs>
  <style id="current-color-scheme" type="text/css">
   .ColorScheme-Text { color:#565656; } .ColorScheme-Highlight { color:#5294e2; }
  </style>
 </defs>
 <path style="fill:currentColor" class="ColorScheme-Text" d="M 4.9746094 -0.021484375 L 4.9746094 2.5800781 C 4.0701094 3.2658531 3.2663512 4.0710696 2.5820312 4.9785156 L -0.025390625 4.9785156 L -0.025390625 8.9785156 L 0.58203125 8.9785156 C 0.16340125 10.416218 -0.02527625 11.964085 0.08984375 13.59375 A 0.50026183 0.50026183 0 1 0 1.0878906 13.523438 C 0.97361062 11.905784 1.1773075 10.380867 1.6171875 8.9785156 L 3.9746094 8.9785156 L 3.9746094 4.9785156 L 3.8320312 4.9785156 C 4.1849312 4.5691306 4.5665894 4.1878674 4.9746094 3.8339844 L 4.9746094 3.9785156 L 8.9746094 3.9785156 L 8.9746094 1.5976562 C 10.382229 1.1490083 11.909078 0.939642 13.517578 1.046875 A 0.50012701 0.50012701 0 0 0 13.583984 0.048828125 C 11.964234 -0.059154875 10.415909 0.136003 8.9746094 0.5625 L 8.9746094 -0.021484375 L 4.9746094 -0.021484375 z M 8.9746094 3.9785156 L 8.9746094 6.4238281 C 8.4408194 6.7369701 7.95778 7.1027709 7.53125 7.5292969 C 7.10309 7.9574599 6.735785 8.4422616 6.421875 8.9785156 L 3.9746094 8.9785156 L 3.9746094 12.978516 L 5.1621094 12.978516 C 5.0606394 13.763393 5.0097656 14.606408 5.0097656 15.507812 A 0.50005012 0.50005012 0 1 0 6.0097656 15.507812 C 6.0097656 14.585477 6.0673681 13.748607 6.1738281 12.978516 L 7.9746094 12.978516 L 7.9746094 8.9785156 L 7.6191406 8.9785156 C 7.8101906 8.7134316 8.0124812 8.4621281 8.2382812 8.2363281 C 8.4624812 8.0121351 8.7116894 7.8110278 8.9746094 7.6210938 L 8.9746094 7.9785156 L 12.974609 7.9785156 L 12.974609 6.171875 C 13.746279 6.064886 14.585076 6.0078125 15.509766 6.0078125 A 0.50005012 0.50005012 0 1 0 15.509766 5.0078125 C 14.606096 5.0078125 13.761159 5.0581722 12.974609 5.1601562 L 12.974609 3.9785156 L 8.9746094 3.9785156 z"/>
 <path style="fill:currentColor;opacity:0.3" class="ColorScheme-Text" d="M 13.755859 1.0039062 A 0.50012701 0.50012701 0 0 1 13.517578 1.046875 C 11.909078 0.93964 10.382229 1.1490082 8.9746094 1.5976562 L 8.9746094 3.9785156 L 12.974609 3.9785156 L 12.974609 5.1601562 C 13.710759 5.0647063 14.503067 5.0177638 15.341797 5.0117188 L 13.755859 1.0039062 z M 8.9746094 3.9785156 L 4.9746094 3.9785156 L 4.9746094 3.8339844 C 4.5665894 4.1878674 4.1849312 4.5691306 3.8320312 4.9785156 L 3.9746094 4.9785156 L 3.9746094 8.9785156 L 6.421875 8.9785156 C 6.735785 8.4422616 7.10309 7.9574599 7.53125 7.5292969 C 7.95778 7.1027709 8.4408194 6.7369701 8.9746094 6.4238281 L 8.9746094 3.9785156 z M 3.9746094 8.9785156 L 1.6171875 8.9785156 C 1.1773075 10.380867 0.97361062 11.905787 1.0878906 13.523438 A 0.50026183 0.50026183 0 0 1 1.0761719 13.667969 L 5.0175781 15.228516 C 5.0275781 14.43443 5.0714794 13.679638 5.1621094 12.978516 L 3.9746094 12.978516 L 3.9746094 8.9785156 z"/>
</svg>

<svg xmlns="http://www.w3.org/2000/svg" width="16" height="16"><defs><style id="current-color-scheme" type="text/css">.ColorScheme-Text{color:#565656}</style></defs><path class="ColorScheme-Text" d="M4.975-.021V2.58A12.303 12.303 0 0 0 2.582 4.98H-.025v4h.607a13.127 13.127 0 0 0-.492 4.615.5.5 0 1 0 .998-.07 12.23 12.23 0 0 1 .53-4.545h2.357v-4h-.143c.353-.41.735-.791 1.143-1.145v.145h4V1.598a12.221 12.221 0 0 1 4.543-.551.5.5 0 0 0 .066-.998 13.112 13.112 0 0 0-4.61.513V-.02h-4zm4 4v2.445A7.126 7.126 0 0 0 7.53 7.529a7.127 7.127 0 0 0-1.11 1.45H3.976v4h1.187a19.762 19.762 0 0 0-.152 2.529.5.5 0 1 0 1 0c0-.923.057-1.76.164-2.53h1.8v-4H7.62c.191-.265.393-.516.62-.742.223-.224.473-.425.736-.615v.358h4V6.172a18.43 18.43 0 0 1 2.535-.164.5.5 0 1 0 0-1c-.904 0-1.749.05-2.535.152V3.98h-4z" fill="currentColor"/><path class="ColorScheme-Text" d="M13.756 1.004a.5.5 0 0 1-.238.043 12.221 12.221 0 0 0-4.543.55V3.98h4V5.16a19.605 19.605 0 0 1 2.367-.148l-1.586-4.008zM8.975 3.979h-4v-.145c-.408.354-.79.735-1.143 1.145h.143v4h2.447a7.127 7.127 0 0 1 1.11-1.45c.426-.426.909-.792 1.443-1.105V3.979zm-5 5H1.617a12.23 12.23 0 0 0-.53 4.544.5.5 0 0 1-.01.145l3.94 1.56c.01-.794.054-1.548.145-2.25H3.975v-4z" fill="currentColor" opacity=".3"/></svg>
